images/reference/bluetooth.svg

<svg height="113.5208" viewBox="0 0 83.74373 113.5208" width="83.743729" xmlns="http://www.w3.org/2000/svg"><g fill-rule="evenodd" transform="matrix(1.3333333 0 0 -1.3333333 0 113.5208)"><path d="m55.741 42.9523c0-22.2144-10.8859-40.223-24.3144-40.223-13.4286 0-24.3141 18.0086-24.3141 40.223 0 22.2149 10.8855 40.2231 24.3141 40.2231 13.4285 0 24.3144-18.0082 24.3144-40.2231" fill="#fff"/><path d="m31.4074 0c18.5887 0 31.4004 8.83086 31.4004 42.5703 0 33.7391-12.8117 42.5703-31.4004 42.5703-18.5894 0-31.4074-8.8312-31.4074-42.5703 0-33.73944 12.818-42.5703 31.4074-42.5703zm-4.0769 42.5699-15.2184 15.2578 4.4102 4.4102 12.1265-12.1266v29.0641l22.0465-22.0465-14.559-14.559 14.559-14.5586-22.0465-22.04646v29.06406l-12.1265-12.1269-4.4102 4.4097zm7.5148-21.5469 7.0395 7.0395-7.034 7.034zm0 43.0938 7.0395-7.0395-7.034-7.0343z" fill="#176fc1"/></g></svg>

<?xml version="1.0" encoding="UTF-8" standalone="no"?>
<!-- Created with Inkscape (http://www.inkscape.org/) -->

<svg
   xmlns:dc="http://purl.org/dc/elements/1.1/"
   xmlns:cc="http://creativecommons.org/ns#"
   xmlns:rdf="http://www.w3.org/1999/02/22-rdf-syntax-ns#"
   xmlns:svg="http://www.w3.org/2000/svg"
   xmlns="http://www.w3.org/2000/svg"
   xmlns:sodipodi="http://sodipodi.sourceforge.net/DTD/sodipodi-0.dtd"
   xmlns:inkscape="http://www.inkscape.org/namespaces/inkscape"
   version="1.1"
   id="svg2"
   xml:space="preserve"
   width="83.743729"
   height="113.5208"
   viewBox="0 0 83.74373 113.5208"
   sodipodi:docname="bluetooth.svg"
   inkscape:version="0.92.1 r15371"><metadata
     id="metadata8"><rdf:RDF><cc:Work
         rdf:about=""><dc:format>image/svg+xml</dc:format><dc:type
           rdf:resource="http://purl.org/dc/dcmitype/StillImage" /><dc:title></dc:title></cc:Work></rdf:RDF></metadata><defs
     id="defs6" /><sodipodi:namedview
     pagecolor="#ffffff"
     bordercolor="#666666"
     borderopacity="1"
     objecttolerance="10"
     gridtolerance="10"
     guidetolerance="10"
     inkscape:pageopacity="0"
     inkscape:pageshadow="2"
     inkscape:window-width="640"
     inkscape:window-height="480"
     id="namedview4"
     showgrid="false"
     fit-margin-top="0"
     fit-margin-left="0"
     fit-margin-right="0"
     fit-margin-bottom="0"
     inkscape:zoom="0.78264631"
     inkscape:cx="231.26666"
     inkscape:cy="56.760004"
     inkscape:window-x="0"
     inkscape:window-y="0"
     inkscape:window-maximized="0"
     inkscape:current-layer="g10" /><g
     id="g10"
     inkscape:groupmode="layer"
     inkscape:label="ink_ext_XXXXXX"
     transform="matrix(1.3333333,0,0,-1.3333333,0,113.5208)"><path
       inkscape:connector-curvature="0"
       id="path34"
       style="fill:#ffffff;fill-opacity:1;fill-rule:evenodd;stroke:none;stroke-width:0.1"
       d="m 55.741,42.9523 c 0,-22.2144 -10.8859,-40.223 -24.3144,-40.223 -13.4286,0 -24.3141,18.0086 -24.3141,40.223 0,22.2149 10.8855,40.2231 24.3141,40.2231 13.4285,0 24.3144,-18.0082 24.3144,-40.2231" /><path
       inkscape:connector-curvature="0"
       id="path36"
       style="fill:#176fc1;fill-opacity:1;fill-rule:evenodd;stroke:none;stroke-width:0.1"
       d="m 31.4074,0 c 18.5887,0 31.4004,8.83086 31.4004,42.5703 0,33.7391 -12.8117,42.5703 -31.4004,42.5703 C 12.818,85.1406 0,76.3094 0,42.5703 0,8.83086 12.818,0 31.4074,0 Z M 27.3305,42.5699 12.1121,57.8277 16.5223,62.2379 28.6488,50.1113 V 79.1754 L 50.6953,57.1289 36.1363,42.5699 50.6953,28.0113 28.6488,5.96484 V 35.0289 L 16.5223,22.902 12.1121,27.3117 Z m 7.5148,-21.5469 7.0395,7.0395 -7.034,7.034 z m 0,43.0938 7.0395,-7.0395 -7.034,-7.0343 -0.0055,14.0738 v 0" /></g></svg>
